!!!OTL: Die schöne Sch&auml;ferin (1-30), S. 79f
!!!id: K1079
**kern
*clefG2
*k[b-e-]
*B-:
{8f
=1
4.b-
8f
8d
8f
8b-
8b-
=2
8a
8g
4g}
4r
=3
{8cc
8dd
=4
4.ee-
8cc
8a
8f
8dd
8cc
=5
2b-}
4r
=6
{4f
=7
4.b-
8f
8d
8f
8b-
8b-
=8
8a
8g
4g}
4r
=9
{8cc
8dd
=10
4.ee-
8cc
8a
8f
8dd
8cc
=11
2b-}
4r
=12
{8b-
8dd
=13
4.cc
8dd
8cc
8cc
8b-
8g
=14
4f
4a
8cc
8ff
8ff}
=15
{8ff
=16
4.ee
8dd
8cc
8cc
8b-
8g
=17
4f
4ee-
4dd}
=18
{4cc
=19
4.b-
8f
8d
8f
8b-
8b-
=20
8a
8g
4g}
4r
=21
{8cc
8dd
=22
4.ee-
8cc
8a
8f
8.dd
16cc
=23
2b-}
4.r
==
*-
!!!minrhy: 16
!!!meters: 4/4 ]  ZZ[8
!!!cut: Die schöne Sch&auml;ferin (1-30), S. 79f
!!!reg: Luxemburg
!!!trd: KINTZELE, Guillaume: An der Ucht, Bd. 1, Luxemburg 1926
!!!rhy1: X_  X__.X_X_X_X_X_  X_X_X__0_   (x2)
!!!rhy2: X_X_  X__.X_X_X_X_X_  X___0_
!!!key: K1079  16 Bb 4/4 ]  ZZ[8
!!!mod: ACHTTONSKALA DUR ?]  AMBITUS[10b
!!!kad: -61-6153-61
!!!akz: 1-3-7_4-71_1-3-7_4-71_22-52_4#2-53_1-3-7_4-71_
!!!fot: 'a__b__a__b__c__d__av_b__
!!!for: 'a__aw_av_aw_aw_aw_av_b__
!!!fok: 'Ma_^d_Ma_^d_~a_Vd_Sd_^d_
!! PHRAS[AUFTAKTIG]
!!!fkt: Liebesklage
!!!bem: in der Quelle mit einer 2. Stimme versehen
!! KINTZELE
!! PR[34] 2K[2] 2G[11] 3K[6] 3G[6] 4A[2] 4Ü[0] 5A[0] 6K[0] 6G[3]
!! 7K[0] 7G[0] 8A[0] MEHR[0] SI[31] ABS[62] SR[13] SP[18]
!! ST[12] 2k[3] 2g[21] 3k[0] 3g[6] 4d[2] 4ü[3] 5d[0] 6k[0] 6g[0]
!! 7k[0] 7g[0] 8d[0] mehr[0] si[35] dm[-4] sr[24] sp[11]
!! 1F[6] 2F[58] 3F[26] 4F[4] LF[0] 2P[6] 3P[0] 4P[0] TRI[0] DF[5] AB[69]
!! TF[0] U3K[0] U3[0] U4[0] U4Ü[0] U5[2] U6K[0] U6[0] U7K[0] U7[5]
!! N1[14] N2K[0] N2[8] N3K[0] N3[21] N4[14] N4Ü[0] N5[21] N6K[0] N6[13]
!!!n7k: 0] N7[3] O1[0] O2K[0] O2[0] O3K[0] O3[0] HÖ[0
!!!RNB: symbol: &auml;      = a umlaut  (UTF-8: Å„)
